static/img/kroki/b0b0768dea4cb18b0f5f5232ff86b3cc.svg

<?xml version="1.0" encoding="us-ascii" standalone="no"?><svg xmlns="http://www.w3.org/2000/svg" xmlns:xlink="http://www.w3.org/1999/xlink" contentStyleType="text/css" height="152px" preserveAspectRatio="none" style="width:963px;height:152px;" version="1.1" viewBox="0 0 963 152" width="963px" zoomAndPan="magnify"><defs/><g><!--class azure_machine_learning_serverless_endpoint--><g id="elem_azure_machine_learning_serverless_endpoint"><rect codeLine="23" fill="#3D176E" height="39.7891" id="azure_machine_learning_serverless_endpoint" rx="2.5" ry="2.5" style="stroke:#000D19;stroke-width:0.5;" width="422" x="7" y="7"/><ellipse cx="22" cy="26.8945" fill="#ADD1B2" rx="11" ry="11" style="stroke:#181818;stroke-width:1.0;"/><path d="M24.9688,32.5352 Q24.3906,32.832 23.75,32.9727 Q23.1094,33.1289 22.4063,33.1289 Q19.9063,33.1289 18.5781,31.4883 Q17.2656,29.832 17.2656,26.707 Q17.2656,23.582 18.5781,21.9258 Q19.9063,20.2695 22.4063,20.2695 Q23.1094,20.2695 23.75,20.4258 Q24.4063,20.582 24.9688,20.8789 L24.9688,23.5977 Q24.3438,23.0195 23.75,22.7539 Q23.1563,22.4727 22.5313,22.4727 Q21.1875,22.4727 20.5,23.5508 Q19.8125,24.6133 19.8125,26.707 Q19.8125,28.8008 20.5,29.8789 Q21.1875,30.9414 22.5313,30.9414 Q23.1563,30.9414 23.75,30.6758 Q24.3438,30.3945 24.9688,29.8164 L24.9688,32.5352 Z " fill="#000000"/><text fill="#D9B8FF" font-family="Helvetica" font-size="17" lengthAdjust="spacing" textLength="380" x="41" y="32.7798">azure_machine_learning_serverless_endpoint</text></g><!--class azure_machine_learning_workspace_model_container--><g id="elem_azure_machine_learning_workspace_model_container"><rect codeLine="26" fill="#3D176E" height="39.7891" id="azure_machine_learning_workspace_model_container" rx="2.5" ry="2.5" style="stroke:#000D19;stroke-width:0.5;" width="493" x="463.5" y="7"/><ellipse cx="478.5" cy="26.8945" fill="#ADD1B2" rx="11" ry="11" style="stroke:#181818;stroke-width:1.0;"/><path d="M481.4688,32.5352 Q480.8906,32.832 480.25,32.9727 Q479.6094,33.1289 478.9063,33.1289 Q476.4063,33.1289 475.0781,31.4883 Q473.7656,29.832 473.7656,26.707 Q473.7656,23.582 475.0781,21.9258 Q476.4063,20.2695 478.9063,20.2695 Q479.6094,20.2695 480.25,20.4258 Q480.9063,20.582 481.4688,20.8789 L481.4688,23.5977 Q480.8438,23.0195 480.25,22.7539 Q479.6563,22.4727 479.0313,22.4727 Q477.6875,22.4727 477,23.5508 Q476.3125,24.6133 476.3125,26.707 Q476.3125,28.8008 477,29.8789 Q477.6875,30.9414 479.0313,30.9414 Q479.6563,30.9414 480.25,30.6758 Q480.8438,30.3945 481.4688,29.8164 L481.4688,32.5352 Z " fill="#000000"/><text fill="#D9B8FF" font-family="Helvetica" font-size="17" lengthAdjust="spacing" textLength="451" x="497.5" y="32.7798">azure_machine_learning_workspace_model_container</text></g><!--class azure_machine_learning_workspace_model_version--><g id="elem_azure_machine_learning_workspace_model_version"><rect codeLine="29" fill="#3D176E" height="39.7891" id="azure_machine_learning_workspace_model_version" rx="2.5" ry="2.5" style="stroke:#000D19;stroke-width:0.5;" width="475" x="226.5" y="106.79"/><ellipse cx="241.5" cy="126.6845" fill="#ADD1B2" rx="11" ry="11" style="stroke:#181818;stroke-width:1.0;"/><path d="M244.4688,132.3252 Q243.8906,132.622 243.25,132.7627 Q242.6094,132.9189 241.9063,132.9189 Q239.4063,132.9189 238.0781,131.2783 Q236.7656,129.622 236.7656,126.497 Q236.7656,123.372 238.0781,121.7158 Q239.4063,120.0595 241.9063,120.0595 Q242.6094,120.0595 243.25,120.2158 Q243.9063,120.372 244.4688,120.6689 L244.4688,123.3877 Q243.8438,122.8095 243.25,122.5439 Q242.6563,122.2627 242.0313,122.2627 Q240.6875,122.2627 240,123.3408 Q239.3125,124.4033 239.3125,126.497 Q239.3125,128.5908 240,129.6689 Q240.6875,130.7314 242.0313,130.7314 Q242.6563,130.7314 243.25,130.4658 Q243.8438,130.1845 244.4688,129.6064 L244.4688,132.3252 Z " fill="#000000"/><text fill="#D9B8FF" font-family="Helvetica" font-size="17" lengthAdjust="spacing" textLength="433" x="260.5" y="132.5698">azure_machine_learning_workspace_model_version</text></g><!--link azure_machine_learning_serverless_endpoint to azure_machine_learning_workspace_model_version--><g id="link_azure_machine_learning_serverless_endpoint_azure_machine_learning_workspace_model_version"><path codeLine="32" d="M266.6,47.22 C309.73,64.36 366.8247,87.0528 409.9247,104.1928 " fill="none" id="azure_machine_learning_serverless_endpoint-to-azure_machine_learning_workspace_model_version" style="stroke:#1A83AF;stroke-width:2.0;"/><polygon fill="#1A83AF" points="415.5,106.41,408.6152,99.3673,410.8539,104.5623,405.6589,106.8011,415.5,106.41" style="stroke:#1A83AF;stroke-width:2.0;"/></g><!--link azure_machine_learning_workspace_model_container to azure_machine_learning_workspace_model_version--><g id="link_azure_machine_learning_workspace_model_container_azure_machine_learning_workspace_model_version"><path codeLine="33" d="M661.4,47.22 C618.27,64.36 561.1753,87.0528 518.0753,104.1928 " fill="none" id="azure_machine_learning_workspace_model_container-to-azure_machine_learning_workspace_model_version" style="stroke:#1A83AF;stroke-width:2.0;"/><polygon fill="#1A83AF" points="512.5,106.41,522.3411,106.8011,517.1461,104.5623,519.3848,99.3673,512.5,106.41" style="stroke:#1A83AF;stroke-width:2.0;"/></g><!--SRC=[fP9HIyCm58NV-oi2Unwi5jts8jJ1q9SXpZUHSfVShA5fKcwoZKtyxxPE9RPke_YQyzsSSoutLm8PbfNVinBB5PABNA5C1GGbIudiRcQr9JQG4cGoRejpQ_n5O04bidlKM_IAGvjupXKl33h7hWBf3dYn9hinulYz9p2kbj3uW9ffS2xrdjHgup488wQhYPHjiltf817n-0Oxc2M1z8MCHYCHJzl8HQkplN-8fJeWYyEbBQp7JioEnITrDcL3124xHR_ranaVGGXbrkmwU7iwPYA3zEjzcOEmkuQMe5reupmIMh-lSDPfXTE9aEC_uOTJSCIRrJ4uR0Yp4dYk36OQWKpjdZcaBPAkRob38oghZ6TlKVH-VcfdgQXFYzUI5QWpNgy5LDEn_snjxvGrnyaUAOSlWpYT9EdyTNZRqolgNUi_PXy0]--></g></svg>

<svg xmlns="http://www.w3.org/2000/svg" width="963" height="152" viewBox="0 0 963 152"><rect width="422" height="39.789" x="7" y="7" fill="#3D176E" rx="2.5" ry="2.5" style="stroke:#000d19;stroke-width:.5"/><circle cx="22" cy="26.895" r="11" fill="#ADD1B2" style="stroke:#181818;stroke-width:1"/><path d="M24.969 32.535q-.578.297-1.219.438-.64.156-1.344.156-2.5 0-3.828-1.64-1.312-1.657-1.312-4.782t1.312-4.781q1.328-1.656 3.828-1.656.703 0 1.344.156.656.156 1.219.453v2.719q-.625-.578-1.219-.844-.594-.281-1.219-.281-1.343 0-2.031 1.078-.687 1.062-.687 3.156t.687 3.172q.688 1.062 2.031 1.062.625 0 1.219-.265.594-.281 1.219-.86z"/><text x="41" y="32.78" fill="#D9B8FF" font-family="Helvetica" font-size="17" textLength="380">azure_machine_learning_serverless_endpoint</text><rect width="493" height="39.789" x="463.5" y="7" fill="#3D176E" rx="2.5" ry="2.5" style="stroke:#000d19;stroke-width:.5"/><circle cx="478.5" cy="26.895" r="11" fill="#ADD1B2" style="stroke:#181818;stroke-width:1"/><path d="M481.469 32.535q-.578.297-1.219.438-.64.156-1.344.156-2.5 0-3.828-1.64-1.312-1.657-1.312-4.782t1.312-4.781q1.328-1.656 3.828-1.656.703 0 1.344.156.656.156 1.219.453v2.719q-.625-.578-1.219-.844-.594-.281-1.219-.281-1.344 0-2.031 1.078-.687 1.062-.687 3.156t.687 3.172q.688 1.062 2.031 1.062.625 0 1.219-.265.594-.281 1.219-.86z"/><text x="497.5" y="32.78" fill="#D9B8FF" font-family="Helvetica" font-size="17" textLength="451">azure_machine_learning_workspace_model_container</text><rect width="475" height="39.789" x="226.5" y="106.79" fill="#3D176E" rx="2.5" ry="2.5" style="stroke:#000d19;stroke-width:.5"/><circle cx="241.5" cy="126.684" r="11" fill="#ADD1B2" style="stroke:#181818;stroke-width:1"/><path d="M244.469 132.325q-.578.297-1.219.438-.64.156-1.344.156-2.5 0-3.828-1.64-1.312-1.657-1.312-4.782t1.312-4.781q1.328-1.656 3.828-1.656.703 0 1.344.156.656.156 1.219.453v2.719q-.625-.579-1.219-.844-.594-.281-1.219-.281-1.344 0-2.031 1.078-.687 1.062-.687 3.156t.687 3.172q.688 1.062 2.031 1.062.625 0 1.219-.265.594-.281 1.219-.86z"/><text x="260.5" y="132.57" fill="#D9B8FF" font-family="Helvetica" font-size="17" textLength="433">azure_machine_learning_workspace_model_version</text><path fill="none" d="M266.6 47.22a715525 715525 0 0 1 143.325 56.973" style="stroke:#1a83af;stroke-width:2"/><path fill="#1A83AF" d="m415.5 106.41-6.885-7.043 2.239 5.195-5.195 2.24z" style="stroke:#1a83af;stroke-width:2"/><path fill="none" d="M661.4 47.22a715525 715525 0 0 0-143.325 56.973" style="stroke:#1a83af;stroke-width:2"/><path fill="#1A83AF" d="m512.5 106.41 9.841.391-5.195-2.239 2.239-5.195z" style="stroke:#1a83af;stroke-width:2"/></svg>
